icons/outline/ticket.svg

<svg width="24" height="24" viewBox="0 0 24 24" fill="none" xmlns="http://www.w3.org/2000/svg">
<path d="M16.5 6V6.75M16.5 9.75V10.5M16.5 13.5V14.25M16.5 17.25V18M7.5 12.75H12.75M7.5 15H10.5M3.375 5.25C2.75368 5.25 2.25 5.75368 2.25 6.375V9.40135C3.1467 9.92006 3.75 10.8896 3.75 12C3.75 13.1104 3.1467 14.0799 2.25 14.5987V17.625C2.25 18.2463 2.75368 18.75 3.375 18.75H20.625C21.2463 18.75 21.75 18.2463 21.75 17.625V14.5987C20.8533 14.0799 20.25 13.1104 20.25 12C20.25 10.8896 20.8533 9.92006 21.75 9.40135V6.375C21.75 5.75368 21.2463 5.25 20.625 5.25H3.375Z" stroke="#0F172A" stroke-width="1.5" stroke-linecap="round" stroke-linejoin="round"/>
</svg>

<svg xmlns="http://www.w3.org/2000/svg" fill="none" viewBox="0 0 24 24" stroke-width="1.5" stroke="currentColor" aria-hidden="true">
  <path stroke-linecap="round" stroke-linejoin="round" d="M16.5 6v.75m0 3v.75m0 3v.75m0 3V18m-9-5.25h5.25M7.5 15h3M3.375 5.25c-.621 0-1.125.504-1.125 1.125v3.026a2.999 2.999 0 010 5.198v3.026c0 .621.504 1.125 1.125 1.125h17.25c.621 0 1.125-.504 1.125-1.125v-3.026a2.999 2.999 0 010-5.198V6.375c0-.621-.504-1.125-1.125-1.125H3.375z"/>
</svg>
